svg/fluentui-system-icons/ic_fluent_hard_drive_16_filled.svg

<svg width="16" height="16" viewBox="0 0 16 16" fill="none" xmlns="http://www.w3.org/2000/svg">
<path d="M12.5 8.00006C13.3284 8.00006 14 8.67163 14 9.50006V10.5018C13.9996 10.899 13.8416 11.2798 13.5607 11.5607C13.2794 11.842 12.8978 12.0001 12.5 12.0001H3.5C3.10218 12.0001 2.72064 11.842 2.43934 11.5607C2.15804 11.2794 2 10.8979 2 10.5001L2 9.50006C2.00033 8.67191 2.67177 8.00006 3.5 8.00006H12.5ZM13.5584 7.2345L11.885 3.72707V3.72007C11.7857 3.50319 11.6256 3.31976 11.4241 3.19198C11.2227 3.06419 10.9885 2.99753 10.75 3.00007H5.25C5.01163 2.99773 4.77769 3.06448 4.57645 3.19225C4.37521 3.32002 4.21528 3.50335 4.116 3.72007V3.72707L2.44179 7.23441C2.76315 7.08406 3.12177 7.00006 3.5 7.00006H12.5C12.8783 7.00006 13.237 7.08409 13.5584 7.2345ZM12 10.5001C12.2761 10.5001 12.5 10.2762 12.5 10.0001C12.5 9.72392 12.2761 9.50006 12 9.50006C11.7239 9.50006 11.5 9.72392 11.5 10.0001C11.5 10.2762 11.7239 10.5001 12 10.5001Z" fill="#212121"/>
</svg>

<svg xmlns="http://www.w3.org/2000/svg" width="16" height="16"><path d="M12.5 8A1.5 1.5 0 0 1 14 9.5v1.002A1.5 1.5 0 0 1 12.5 12h-9A1.5 1.5 0 0 1 2 10.5v-1A1.5 1.5 0 0 1 3.5 8h9Zm1.058-.766-1.673-3.507V3.72A1.233 1.233 0 0 0 10.75 3h-5.5a1.234 1.234 0 0 0-1.134.72v.007L2.442 7.234A2.49 2.49 0 0 1 3.5 7h9c.378 0 .737.084 1.058.234ZM12 10.5a.5.5 0 1 0 0-1 .5.5 0 0 0 0 1Z"/></svg>
